icons/24px/verified.svg

<svg width="24" height="24" viewBox="0 0 24 24" fill="none" xmlns="http://www.w3.org/2000/svg">
<path d="M10.6672 15.2672C10.8234 15.4234 11.0766 15.4234 11.2328 15.2672L16.3172 10.1828C16.4734 10.0266 16.4734 9.77337 16.3172 9.61716L15.4578 8.75784C15.3016 8.60163 15.0484 8.60163 14.8922 8.75784L10.95 12.7L9.13284 10.8828C8.97663 10.7266 8.72337 10.7266 8.56716 10.8828L7.70784 11.7422C7.55163 11.8984 7.55163 12.1516 7.70784 12.3078L10.6672 15.2672ZM12.0977 21.9749C12.0337 21.9917 11.9663 21.9917 11.9023 21.9749C9.62951 21.3791 7.74958 20.0583 6.2625 18.0125C4.75417 15.9375 4 13.6333 4 11.1V5.2772C4 5.11046 4.10343 4.96121 4.25955 4.90267L11.8596 2.05267C11.9501 2.01871 12.0499 2.01871 12.1404 2.05267L19.7404 4.90267C19.8966 4.96121 20 5.11046 20 5.2772V11.1C20 13.6333 19.2458 15.9375 17.7375 18.0125C16.2504 20.0583 14.3705 21.3791 12.0977 21.9749ZM12 19.9C13.7333 19.35 15.1667 18.25 16.3 16.6C17.4333 14.95 18 13.1167 18 11.1V6.375L12 4.125L6 6.375V11.1C6 13.1167 6.56667 14.95 7.7 16.6C8.83333 18.25 10.2667 19.35 12 19.9Z" fill="black"/>
</svg>

<?xml version="1.0" encoding="UTF-8"?>
<svg id="Layer_1" data-name="Layer 1" xmlns="http://www.w3.org/2000/svg" viewBox="0 0 24 24">
  <defs>
    <style>
      .cls-1 {
        stroke-width: 0px;
      }
    </style>
  </defs>
  <path class="cls-1" d="m10.6672,15.2672c.1562.1562.4094.1562.5656,0l5.0844-5.0844c.1562-.1562.1562-.4094,0-.5656l-.8594-.8593c-.1562-.1562-.4094-.1562-.5656,0l-3.9422,3.9422-1.8172-1.8172c-.1562-.1562-.4095-.1562-.5657,0l-.8593.8594c-.1562.1562-.1562.4094,0,.5656l2.9594,2.9594Zm1.4305,6.7077c-.064.0168-.1314.0168-.1954,0-2.2728-.5958-4.1527-1.9166-5.6398-3.9624-1.5083-2.075-2.2625-4.3792-2.2625-6.9125v-5.8228c0-.1667.1034-.316.2596-.3745l7.6-2.85c.0905-.034.1903-.034.2808,0l7.6,2.85c.1562.0585.2596.2078.2596.3745v5.8228c0,2.5333-.7542,4.8375-2.2625,6.9125-1.4871,2.0458-3.367,3.3666-5.6398,3.9624Zm-.0977-2.0749c1.7333-.55,3.1667-1.65,4.3-3.3,1.1333-1.65,1.7-3.4833,1.7-5.5v-4.725l-6-2.25-6,2.25v4.725c0,2.0167.5667,3.85,1.7,5.5,1.1333,1.65,2.5667,2.75,4.3,3.3Z"/>
</svg>
